X: 231
T: Marchmont House
R: jig
B: Robert Bremner "A Collection of Scots Reels or Country Dances" p.23 #1
S: http://imslp.org/wiki/A_Collection_of_Scots_Reels_or_Country_Dances_(Bremner,_Robert)
Z: 2013 John Chambers <jc:trillian.mit.edu>
M: 6/8
L: 1/8
K: D
% - - - - - - - - - - - - - - - - - - - - - - - - -
V: 1
A |\
(F/G/A)F D2A | ded dAG | (F/G/A)F D2f | eEE E2G |\
(F/G/A)F D2A | ded dAG | FdF Edc | dAF D2 :|
|: g |\
(f/g/a)f d2f | aba afd | (f/g/a)f d>ef | eEE E2g |\
(f/g/a)f dfa | bag fed | (B/c/d)B AFB | AFD D2 :|
|: A |\
FAd FAd | dAF dAF | FAd def | eEE E2G |\
FAd FAd | fed cBA | (B/c/d)B AFB | AFD D2 :|
|: f |\
dfa dfa | afd afd | dfa def | eEE E2f |\
dfa dfa | bag fed | (B/c/d)B AFB | AFD D2 :|
% - - - - - - - - - - - - - - - - - - - - - - - - -
V: 2 clef=bass middle=d
z |\
d3 d3 | d3 d3 | d3 d3 | e3 e3 |\
d3 d3 | d3 d3 | a3 A3 |
d3 d2 :|\
|:z |\
d3 d3 | d3 d3 | d3 d3 | e3 e3 |\
d3 d3 | g3 d3 | G3 A3 |\
d3 d2 :|\
|: z |\
d3 d3 | d3 d3 | d3 d3 | e3 e3 |\
d3 d3 | d3 d3 | g3 a3 |
d3 d2 :|\
|: z |\
d3 d3 | d3 d3 | d3 d3 | e3 e3 |\
d3 d3 | d3 d3 | g3 a3 | d3 d2 :|
% - - - - - - - - - - - - - - - - - - - - - - - - -

% missing page

% missing page

% missing page

% missing page

%%sep 1 1 500
%%sep 1 1 500
